!!!!SEGMENT: pl-sa--569-a-ix-49--002_anonim--allegro.krn
!!!cenid: 18xx:601
!!!COM: Anonim
!!!COM-rismID: pe30004985
!!!CDT:
!!!CNT:
!!!OTL: Allegro
!!!PDT:
!!!AGN: Secular
!!!SMS-siglum: PL-SA
!!!SMS-shelfmark: 569/A IX 49
!!!SMS-shelfwork: 002 W
!!!SMS-variant:
!!!SMS-altvar:
!!!NIFC-rismSourceID: 1001077523
!!!NIFC-rismChildID: 1001077523
!!!NIFC-islandoraID: none
!!!URL-pdf-islandora:
!!!URL-scan: https://bc.bdsandomierz.pl/dlibra/publication/1324/edition/1292/content @EN{Scan in the Sandomierz Diocese Digital Library} @PL{Skany w portalu Cyfrowa Biblioteka Diecezjalna w Sandomierzu}
!!!ONB-nifc: Str. 6-7. Na str. 8 zakończenie innego utworu.
!!!AIN: 1 empty
!!!key:
**kern	**kern
*part1	*part1
*staff2	*staff1
*Iempty	*Iempty
*I"	*I"
*I'keyb	*I'keyb
*clefF4	*clefG2
*k[]	*k[]
*C:	*C:
*M2/4	*M2/4
=1	=1
!	!LO:TX:a:i:B:t=Allo
!	!LO:TX:a:t=P:problem=napis na pięciolinii przed kluczem
4c\	4e/ 4a 4cc
.	8qqee/
4G\	(>8dd\L
.	16cc\L
.	16b\JJ)
=2	=2
!LO:TX:a:t=P:problem=mixed beam	!
8c\L	8cc/L
8G\	8g/
8C/J	8e/J
8r	8r
=3	=3
4c\	4g\ 4cc 4ee
.	8qqgg/
4G\	(>8ff\L
.	16ee\L
.	16dd\JJ)
=4	=4
8c\L	8ee\L
8G\	8cc\
8C\J	8g\J
8r	8r
=5	=5
8c\L	16ee\LL
.	16g\
8c\J	16ee\
.	16g\JJ
8c\L	16ee\LL
.	16g\
8d\J	16ff\
.	16g\JJ
=6	=6
!	!LO:TX:a:t=P:problem=mixed beam
8e\L	16gg\LL
.	16g/
8e\J	16gg\
.	16g/JJ
8e\L	16gg\LL
.	16g\
8d\J	16ff\
.	16g\JJ
=7	=7
8c\L	16ee\LL
.	16g\
8e\J	16gg\
.	16g\JJ
8d\L	16ff\LL
.	16g\
8B\J	16dd\
.	16g\JJ
!!LO:LB:g=original
=8	=8
8c\L	16ee\LL
.	16g\
8d\	16ff\
.	16g\JJ
8e\J	8gg\
8r	8r
=9	=9
8c\L	16ee\LL
.	16g\
8c\J	16ee\
.	16g\JJ
8c\L	16ee\LL
.	16g\
8d\J	16ff\
.	16g\JJ
=10	=10
8e\L	16gg\LL
.	16g\
8e\J	16gg\
.	16g\JJ
8e\L	16gg\LL
.	16g\
8d\J	16ff\
.	16g\JJ
=11	=11
8c\L	16ee\LL
.	16g\
8e\J	16gg\
.	16g\JJ
8d\L	16ff\LL
.	16g\
8B\J	16dd\
.	16g\JJ
=12	=12
16c\LL	16cc\LL
16G\	16g\
16B\	16b\
16G\JJ	16g\JJ
8c\	8cc\
8r	8r
=13	=13
!LO:TX:a:t=P:problem=mixed beam	!
8C/L	16ccc\LL
.	16cc\
8c\J	16ccc\
.	16cc\JJ
!LO:TX:a:t=P:problem=mixed beam	!
8C/L	16ccc\LL
.	16cc\
8c\J	16bb\
.	16cc\JJ
=14	=14
*rep	*
!LO:TX:a:t=P:problem=mixed beam	!
8C/L	16aa\LL
.	16cc\
8c\J	16aa\
.	16cc\JJ
*Xrep	*
*rep	*
!LO:TX:a:t=P:problem=mixed beam	!
8C/L	16aa\LL
.	16cc\
8c\J	16gg\
.	16cc\JJ
*Xrep	*
=15	=15
*rep	*
!LO:TX:a:t=P:problem=mixed beam	!
8C/L	16ccc\LL
.	16cc\
8c\J	16ccc\
.	16cc\JJ
*Xrep	*
*rep	*
!LO:TX:a:t=P:problem=mixed beam	!
8C/L	16ccc\LL
.	16cc\
8c\J	16bb\
.	16cc\JJ
*Xrep	*
!!LO:LB:g=original
=16	=16
!LO:TX:a:t=P:problem=mixed beam	!
*rep	*
8C/L	16aa\LL
.	16cc\
8c\J	16gg\
.	16cc\JJ
*Xrep	*
*rep	*
!LO:TX:a:t=P:problem=mixed beam	!
8C/L	16aa\LL
.	16cc\
8c\J	16gg\
.	16cc\JJ
*Xrep	*
=17	=17
*rep	*
!LO:TX:a:t=P:problem=mixed beam	!
8C/L	16aa\LL
.	16cc\
8c\J	16gg\
.	16cc\JJ
*Xrep	*
*rep	*
!LO:TX:a:t=P:problem=mixed beam	!
8C/L	16aa\LL
.	16cc\
8c\J	16gg\
.	16cc\JJ
*Xrep	*
=18	=18
4G\	8dd\L 8ff
.	8dd\J 8ff
.	8qqff/
4c\	8ee\L
.	16dd\L
.	16ee\JJ
=19	=19
8G\L	8b\L 8dd
8D\J	8b\J 8dd
4GG/	4b\ 4dd
=20	=20
8d\L 8f	16ff\LL
.	16ee\
8d\J 8f	16dd\
.	16cc\JJ
*rep	*
8d\L 8f	16b\LL
.	16dd\
8d\J 8f	16ff\
.	16dd\JJ
*Xrep	*
=21	=21
8c\L 8e	16gg\LL
.	16ff\
8c\J 8e	16ee\
.	16dd\JJ
*rep	*
8c\L 8e	8cc\
8c\J 8e	8r
*Xrep	*
=22	=22
*rep	*
8c\L 8e	16ff\LL
.	16ee\
8c\J 8e	16dd\
.	16cc\JJ
*Xrep	*
*rep	*
8c\L 8e	16b\LL
.	16dd\
8c\J 8e	16ff\
.	16dd\JJ
*Xrep	*
=23	=23
*rep	*
8c\L 8e	16gg\LL
.	16ff\
8c\J 8e	16ee\
.	16dd\JJ
*Xrep	*
*rep	*
8c\L 8e	8cc\
8c\J 8e	8r
*Xrep	*
!!LO:LB:g=original
=24	=24
!LO:TX:a:t=P:problem=mixed beam	!
8FF/L	16aa\LL
.	16cc\
8F\J	16ccc\
.	16cc\JJ
*rep	*rep
!LO:TX:a:t=P:problem=mixed beam	!
8FF/L	16aa\LL
.	16cc\
8F\J	16ccc\
.	16cc\JJ
*Xrep	*Xrep
=25	=25
!LO:TX:a:t=P:problem=mixed beam	!
8EE/L	16gg\LL
.	16cc\
8E\J	16ccc\
.	16cc\JJ
*rep	*rep
!LO:TX:a:t=P:problem=mixed beam	!
8EE/L	16gg\LL
.	16cc\
8E\J	16ccc\
.	16cc\JJ
*Xrep	*Xrep
=26	=26
4F\	16aa\LL
.	16ccc\
.	16bb\
.	16aa\JJ
!LO:TX:a:t=P:problem=mixed beam	!
8G\L	16gg\LL
.	16ff\
8GG/J	16ee\
.	16dd\JJ
=27	=27
!	!LO:SIC:s=8cc
8c\L	8dd\L
8G\J	8g\J
4C/	8cc\
.	8r
*clefG2	*
=28	=28
16c/LL	8gg\L
16g/	.
16e/	8ccc\J
16g/JJ	.
*rep	*
16c/LL	8r
16g/	.
16e/	8gg\
16g/JJ	.
*Xrep	*
=29	=29
16c/LL	8aa\L
16a/	.
16f/	8ccc\J
16a/JJ	.
*rep	*
16c/LL	8r
16a/	.
16f/	8aa\
16a/JJ	.
*Xrep	*
=30	=30
16c/LL	8gg\L
16g/	.
16e/	8gg\J
16g/JJ	.
16B/LL	8r
16g/	.
!	!LO:TX:a:t=P:problem=niezidentyfikowany znak nad nutą
16d/	8ff\
16g/JJ	.
=31	=31
16c/LL	8ee\L
16g/	.
16e/	8gg\J
16g/JJ	.
*rep	*
!	!LO:TX:a:t=P:problem=takt niepełny, brak pauzy
16c/LL	8g/
16g/	.
16e/	8ryy
16g/JJ	.
*Xrep	*
!!LO:LB:g=original
=32	=32
16c/LL	8gg\L
16g/	.
16e/	8ccc\J
16g/JJ	.
*rep	*
16c/LL	8r
16g/	.
16e/	8gg\
16g/JJ	.
*Xrep	*
=33	=33
16c/LL	8aa\L
16a/	.
16f/	8ccc\J
16a/JJ	.
*rep	*
16c/LL	8r
16a/	.
16f/	8aa\
16a/JJ	.
*Xrep	*
=34	=34
16B/LL	8gg\L
16g/	.
16d/	8dd\J
16g/JJ	.
16c/LL	8ee\L
16g/	.
16e/	8cc\J
16g/JJ	.
=35	=35
8G/L	8b\L
8g/J	8gg\J
4G/	4g/
=36	=36
*clefF4	*
16G\LL	8bb\L
16d\	.
16B\	8gg\J
16d\JJ	.
*rep	*
16G\LL	8r
16d\	.
16B\	8bb\
16d\JJ	.
*Xrep	*
=37	=37
16D\LL	8ccc\L
16d\	.
16A\	8aa\J
16d\JJ	.
*rep	*
16D\LL	8r
16d\	.
16A\	8aa\
16d\JJ	.
*Xrep	*
=38	=38
16D\LL	8aa\L
16d\	.
16A\	8ff#X\J
16d\JJ	.
*rep	*
16D\LL	8r
16d\	.
16A\	8aa\
16d\JJ	.
*Xrep	*
=39	=39
16G\LL	8bb\L
16d\	.
16B\	8gg\J
16d\JJ	.
*rep	*
16G\LL	8r
16d\	.
16B\	8gg\
16d\JJ	.
*Xrep	*
=40	=40
*clefG2	*
16c/LL	8gg\L
16g/	.
16e/	8ccc\J
16g/JJ	.
*rep	*
16c/LL	8r
16g/	.
16e/	8gg\
16g/JJ	.
*Xrep	*
!!LO:LB:g=original
=41	=41
16c/LL	8aa\L
16a/	.
16f/	8ccc\J
16a/JJ	.
*rep	*
16c/LL	8r
16a/	.
16f/	8aa\
16a/JJ	.
*Xrep	*
=42	=42
*clefF4	*
4G\	8ee\L 8gg
.	8dd\J 8ff
4r	8cc\L 8ee
.	8b\J 8dd
=43	=43
4c\	4e/ 4g 4cc
.	8qqee/
4G\	8dd\L
.	16cc\L
.	16b\JJ
=44	=44
8c\L	8cc/L
8G\	8g/
8C\J	8e/J
8r	8r
=45	=45
4c\	4g/ 4cc/ 4ee/
.	8qqgg/
4G\	8ff\L
.	16ee\L
.	16dd\JJ
=46	=46
8c\L	8ee\L
8G\	8cc\
8C\J	8g\J
8r	8r
=47	=47
!LO:TX:a:t=di:rj:problem=lub inne oznaczenie (nieczytelne)	!
8B\L	16ee\LL
.	16g\
8d\J	16gg\
.	16g\JJ
8d\L	16ff\LL
.	16g\
8c\J	16dd\
.	16g\JJ
=48	=48
16c\LL	16cc/LL
16G\	16g/
16B\	16b/
16G\JJ	16g/JJ
8c\	8cc\
8r	8r
!!LO:PB:g=original
=49!|:	=49!|:
!LO:TX:a:t=P:problem=mixed beam	!
8C/L	16ccc\LL
.	16cc\
8c\J	16ccc\
.	16cc\JJ
*rep	*
!LO:TX:a:t=P:problem=mixed beam	!
8C/L	16ccc\LL
.	16cc\
8c\J	16bb\
.	16cc\JJ
*Xrep	*
=50	=50
!LO:TX:a:t=P:problem=mixed beam	!
8C/L	16aa\LL
.	16cc\
8c\J	16aa\
.	16cc\JJ
*rep	*
!LO:TX:a:t=P:problem=mixed beam	!
8C/L	16aa\LL
.	16cc\
8c\J	16gg\
.	16cc\JJ
*Xrep	*
=51:|!	=51:|!
*rep	*
!LO:TX:a:t=P:problem=mixed beam	!
8C/L	16aa\LL
.	16cc\
8c\J	16gg\
.	16cc\JJ
*Xrep	*
*rep	*
!LO:TX:a:t=P:problem=mixed beam	!
8C/L	16aa\LL
.	16cc\
8c\J	16gg\
.	16cc\JJ
*Xrep	*
=52	=52
*rep	*
!LO:TX:a:t=P:problem=mixed beam	!
8C/L	16aa\LL
.	16cc\
8c\J	16gg\
.	16cc\JJ
*Xrep	*
*rep	*
!LO:TX:a:t=P:problem=mixed beam	!
8C/L	16aa\LL
.	16cc\
8c\J	16gg\
.	16cc\JJ
*Xrep	*
=53	=53
4G\	8dd\L 8ff
.	8dd\J 8ff
.	8qqff/
4c\	8ee\L
.	16dd\L
.	16ee\JJ
=54	=54
8G\L	8b\L 8dd
8E\J	8b\J 8dd
4GG/	4b\ 4dd
=55	=55
8d\L 8f	16ff\LL
.	16ee\
8d\J 8f	16dd\
.	16cc\JJ
*rep	*
8d\L 8f	16b\LL
.	16dd\
8d\J 8f	16ff\
.	16dd\JJ
*Xrep	*
=56	=56
8c\L 8e	16gg\LL
.	16ff\
8c\J 8e	16ee\
.	16dd\JJ
*rep	*
8c\L 8e	8cc\
8c\J 8e	8r
*Xrep	*
=57	=57
8d\L 8f	16ff\LL
.	16ee\
8d\J 8f	16dd\
.	16cc\JJ
*rep	*
8d\L 8f	16b\LL
.	16dd\
8d\J 8f	16ff\
.	16dd\JJ
*Xrep	*
!!LO:LB:g=original
=58	=58
8c\L 8e	16gg\LL
.	16ff\
8c\J 8e	16ee\
.	16dd\JJ
*rep	*
8c\L 8e	8cc\
8c\J 8e	8r
*Xrep	*
=59	=59
!LO:TX:a:t=P:problem=mixed beam	!
8FF/L	16aa\LL
.	16cc\
8F\J	16ccc\
.	16cc\JJ
*rep	*rep
!LO:TX:a:t=P:problem=mixed beam	!
8FF/L	16aa\LL
.	16cc\
8F\J	16ccc\
.	16cc\JJ
*Xrep	*Xrep
=60	=60
!LO:TX:a:t=P:problem=mixed beam	!
8EE/L	16gg\LL
.	16cc\
8E\J	16ccc\
.	16cc\JJ
*rep	*rep
!LO:TX:a:t=P:problem=mixed beam	!
8EE/L	16gg\LL
.	16cc\
8E\J	16ccc\
.	16cc\JJ
*Xrep	*Xrep
=61	=61
4F\	16aa\LL
.	16ccc\
.	16bb\
.	16aa\JJ
!LO:TX:a:t=P:problem=mixed beam	!
8G\L	16gg\LL
.	16ff\
8GG/J	16ee\
.	16dd\JJ
=62	=62
8c\L	8cc/L
8G\J	8g/J
4C/	4e/ 4cc
=63!|:	=63!|:
8d\L 8f	16ff\LL
.	16ee\
8d\J 8f	16dd\
.	16cc\JJ
*rep	*
8d\L 8f	16b\LL
.	16dd\
8d\J 8f	16ff\
.	16dd\JJ
*Xrep	*
=64	=64
8c\L 8e	16gg\LL
.	16ff\
8c\J 8e	16ee\
.	16dd\JJ
*rep	*
8c\L 8e	8cc\
8c\J 8e	8r
*Xrep	*
=65:|!	=65:|!
!LO:TX:a:t=P:problem=mixed beam	!
8FF/L	16aa\LL
.	16cc\
8F\J	16ccc\
.	16cc\JJ
*rep	*rep
!LO:TX:a:t=P:problem=mixed beam	!
8FF/L	16aa\LL
.	16cc\
8F\J	16ccc\
.	16cc\JJ
*Xrep	*Xrep
!!LO:LB:g=original
=66	=66
!LO:TX:a:t=P:problem=mixed beam	!
8EE/L	16gg\LL
.	16cc\
8E\J	16ccc\
.	16cc\JJ
*rep	*rep
!LO:TX:a:t=P:problem=mixed beam	!
8EE/L	16gg\LL
.	16cc\
8E\J	16ccc\
.	16cc\JJ
*Xrep	*Xrep
=67	=67
4F\	16aa\LL
.	16ccc\
.	16bb\
.	16aa\JJ
!LO:TX:a:t=P:problem=mixed beam	!
8G\L	16gg\LL
.	16ff\
8GG/J	16ee\
.	16dd\JJ
=68!|:	=68!|:
4c\	4cc\
8G\L	16bb\LL
.	16dd\
8G\J	16bb\
.	16dd\JJ
=69	=69
4c\	4ee\ 4ccc
8G\L	16bb\LL
.	16dd\
8G\J	16bb\
.	16dd\JJ
=70	=70
4c\	4ee\ 4ccc
4r	16gg\LL
.	16aa\
.	16bb\
.	16ccc\JJ
=71	=71
4F\	16aa\LL
.	16ccc\
.	16bb\
.	16aa\JJ
!LO:TX:a:t=P:problem=mixed beam	!
8G\L	16gg\LL
.	16ff\
8GG/J	16ee\
.	16dd\JJ
=72:|!	=72:|!
!LO:TX:a:t=P:problem=mixed beam	!
8C/L	8cc\
8c\J	16r
.	16gg\
*rep	*
!LO:TX:a:t=P:problem=mixed beam	!
8C/L	16ccc\LL
.	16gg\
8c\J	16ccc\
.	16gg\JJ
*Xrep	*
=73	=73
!LO:TX:a:t=P:problem=mixed beam	!
8C/L	8ccc\
8c\J	16r
.	16gg\
*rep	*
!LO:TX:a:t=P:problem=mixed beam	!
8C/L	16ccc\LL
.	16gg\
8c\J	16ccc\
.	16gg\JJ
*Xrep	*
!!LO:LB:g=original
=74	=74
!LO:TX:a:t=P:problem=mixed beam	!LO:TX:a:t=P:problem=mixed beam
8FF/L 8C/	8ccc\L
8c\J	8g/ 8cc/ 8ee/
!LO:TX:a:t=P:problem=takt niepełny	!
4ryy	8g/ 8cc/ 8ee/
.	8gg/J
=75	=75
4C/ 4c	4g/ 4cc 4ee
4C/ 4c	4g/ 4cc 4ee
=76	=76
4C/ 4c	4g/ 4cc 4ee
4r	4r
=77:|!|:	=77:|!|:
!LO:TX:a:i:t=de	!LO:TX:i:a:t=de
!	!LO:TX:a:t=P:problem=prawdopodobnie ten fragment powinien być wykonany przed taktem 47.
8c\L	16ee\LL
.	16g\
8c\J	16ee\
.	16g\JJ
8c\L	16ee\LL
.	16g\
8d\J	16ff\
.	16g\JJ
=78	=78
8e\L	16gg\LL
.	16a\
8e\	16gg\
.	16a\JJ
8e\	16gg\LL
.	16a\
8d\J	16ff\
.	16g\JJ
=79	=79
8c\L	16ee\LL
.	16g\
8d\J	16gg\
.	16g\JJ
8c\L	16ff\LL
.	16g\
8B\J	16dd\
.	16g\JJ
=80	=80
8c\L	16ee\LL
.	16g\
8d\	16ff\
.	16g\JJ
8e\J	8gg\
8r	8r
=81	=81
8c\L	16ee\LL
.	16g\
8c\J	16ee\
.	16g\JJ
8c\L	16ee\LL
.	16g\
8d\J	16ff\
.	16g\JJ
=82	=82
8e\L	16gg\LL
.	16g\
8e\J	16gg\
.	16g\JJ
8e\L	16gg\LL
.	16g\
8d\J	16ff\
.	16g\JJ
==	==
*-	*-
!!!system-decoration: {(s1,s2)}
!!!RDF**kern: > = above
!!!RDF**kern: < = below
!!!EED: Mateusz Mrugas
!!!EEV: 2020-12-10
!!!ENC: Tomasz Grochalski
!!!END: 2020-06-19
!!!YEC: Copyright 2022 Narodowy Instytut Fryderyka Chopina (https://polishscores.org)
!!!YEM: License CC-BY-4.0 (https://creativecommons.org/licenses/by/4.0)
